brandFactory_export/1.Light/Bacteria_1Light.svg

<?xml version="1.0" encoding="UTF-8"?>
<svg width="24px" height="24px" viewBox="0 0 24 24" version="1.1" xmlns="http://www.w3.org/2000/svg" xmlns:xlink="http://www.w3.org/1999/xlink">
    <title>1.Light/Bacteria_1Light</title>
    <g id="Symbols" stroke="none" stroke-width="1" fill="none" fill-rule="evenodd">
        <g id="1.Light/Bacteria_1Light" fill="#5CB615" fill-rule="nonzero">
            <path d="M15.1915966,10.9915966 C15.5882353,10.9848739 17.1647059,10.8336134 17.1647059,8.89747899 C17.1647059,6.96470588 15.5882353,6.80336134 15.1815126,6.79327731 C15.1310924,6.78991597 15.0739496,6.78991597 15.0201681,6.78991597 L14.9865546,6.78991597 C14.5731092,6.79327731 13.0268908,6.93781513 13.0268908,8.88403361 C13.0268908,10.8336134 14.5831933,10.9848739 15,10.9915966 L15.0571429,10.9915966 C15.1042017,10.994958 15.1512605,10.9915966 15.1915966,10.9915966 L15.1915966,10.9915966 Z M15.205042,5.78823529 C16.6806723,5.82521008 18.1697479,6.8 18.1697479,8.90084034 C18.1697479,11.005042 16.6806723,11.9764706 15.2084034,12.0033613 L15.0571429,12.0067227 L14.9831933,12.0067227 C13.507563,11.9831933 12.0184874,11.0117647 12.0184874,8.8907563 C12.0184874,6.7697479 13.5008403,5.80504202 14.9764706,5.79159664 L15.0201681,5.79159664 L15.205042,5.78823529 L15.205042,5.78823529 Z M9.20840336,12.0705882 C9.42689076,12.0672269 10.307563,11.9831933 10.307563,10.907563 C10.307563,9.83193277 9.4302521,9.74117647 9.20504202,9.73445378 L9.09411765,9.73445378 C8.86218487,9.73781513 8.00504202,9.81848739 8.00504202,10.897479 C8.00504202,11.9831933 8.87226891,12.0672269 9.10420168,12.0705882 L9.20840336,12.0705882 L9.20840336,12.0705882 Z M9.22857143,8.72605042 C10.2336134,8.74957983 11.312605,9.44201681 11.312605,10.9042017 C11.312605,12.3697479 10.2302521,13.0554622 9.22521008,13.0756303 L9.08739496,13.0756303 C8.08235294,13.0588235 7,12.3731092 7,10.8941176 C7,9.41512605 8.08235294,8.73277311 9.08067227,8.72268908 L9.12436975,8.72268908 L9.22857143,8.72605042 Z M15.7428571,16.7092437 C16.0218487,16.6453782 17.1109244,16.3058824 16.8285714,14.9411765 C16.610084,13.892437 15.887395,13.7210084 15.4336134,13.7210084 C15.2991597,13.7210084 15.1848739,13.7378151 15.1210084,13.7478992 C15.0773109,13.7546218 15.0268908,13.7647059 14.9831933,13.7747899 C14.6907563,13.8386555 13.6218487,14.1680672 13.907563,15.5428571 C14.1260504,16.5915966 14.8319328,16.7697479 15.2857143,16.7697479 C15.4268908,16.7697479 15.5411765,16.7529412 15.6117647,16.7361345 C15.6521008,16.7294118 15.702521,16.7159664 15.7428571,16.7092437 L15.7428571,16.7092437 Z M15.4336134,12.712605 C16.6605042,12.712605 17.5478992,13.4689076 17.8134454,14.7361345 C18.1596639,16.4067227 17.1378151,17.4218487 15.9647059,17.6907563 L15.8033613,17.7243697 C15.6890756,17.7445378 15.5042017,17.7747899 15.2857143,17.7747899 C14.0722689,17.7747899 13.1882353,17.0151261 12.9226891,15.7445378 C12.5731092,14.0571429 13.594958,13.0453782 14.7680672,12.789916 C14.8252101,12.7798319 14.8857143,12.7663866 14.9394958,12.7563025 C15.0470588,12.7361345 15.2218487,12.712605 15.4336134,12.712605 L15.4336134,12.712605 Z M18.4554622,17.3613445 C19.5714286,16.2453782 20.3882353,14.5243697 20.3882353,11.8352941 C20.3882353,5.16302521 15.3462185,4.32941176 13.1848739,4.26554622 L12.4084034,4.26554622 C12.3277311,4.26554622 12.2470588,4.26554622 12.1563025,4.27563025 C12.0756303,4.27563025 11.9848739,4.27563025 11.8941176,4.28571429 C11.5142857,4.30588235 11.1008403,4.35630252 10.6571429,4.44705882 C10.3747899,4.49747899 10.102521,4.56806723 9.82352941,4.66890756 C9.73277311,4.69915966 9.63193277,4.71596639 9.54117647,4.75966387 C9.45042017,4.78991597 9.35966387,4.82016807 9.26890756,4.8605042 C9.25882353,4.8605042 9.2487395,4.87058824 9.22857143,4.88067227 C9.06722689,4.94117647 8.90588235,5.01176471 8.74453782,5.10252101 C8.68403361,5.13277311 8.63361345,5.16302521 8.57310924,5.19327731 C8.1092437,5.44537815 7.66554622,5.75798319 7.26554622,6.15798319 C7.26554622,6.16806723 7.26554622,6.17815126 7.24537815,6.17815126 C7.22521008,6.19831933 7.21512605,6.21848739 7.19495798,6.23865546 C7.19495798,6.23865546 7.18487395,6.25882353 7.17478992,6.25882353 C7.03361345,6.4 6.90252101,6.54117647 6.79495798,6.69915966 C6.67394958,6.85042017 6.56302521,7.00168067 6.45210084,7.17310924 C6.44201681,7.20336134 6.42184874,7.22352941 6.40168067,7.25378151 C6.30084034,7.41512605 6.21008403,7.58655462 6.11932773,7.76806723 C6.1092437,7.78823529 6.09915966,7.80840336 6.09915966,7.82857143 C5.99831933,8.01008403 5.91764706,8.20168067 5.84705882,8.41344538 C5.79663866,8.54453782 5.74621849,8.67563025 5.70588235,8.81680672 C5.67563025,8.91764706 5.64537815,9.02857143 5.61512605,9.14957983 C5.54453782,9.40168067 5.49411765,9.67394958 5.44369748,9.94621849 C5.42352941,10.0470588 5.41344538,10.1478992 5.40336134,10.2487395 C5.37310924,10.4403361 5.35294118,10.6319328 5.34285714,10.8336134 C5.32268908,10.9848739 5.32268908,11.1361345 5.31260504,11.297479 C5.30252101,11.4588235 5.30252101,11.6201681 5.30252101,11.7882353 C5.30252101,18.5310924 10.3142857,19.3378151 12.4655462,19.3680672 L12.7277311,19.3680672 C12.8991597,19.3680672 13.0672269,19.3680672 13.2218487,19.3579832 C14.4789916,19.3378151 16.7210084,19.0352941 18.3613445,17.4554622 C18.3815126,17.4453782 18.3815126,17.4252101 18.4016807,17.405042 C18.4151261,17.3815126 18.4352941,17.3815126 18.4554622,17.3613445 L18.4554622,17.3613445 Z M24.1193277,11.3142857 C24.4016807,11.3142857 24.6235294,11.5361345 24.6235294,11.8184874 C24.6235294,12.0907563 24.4016807,12.3226891 24.1193277,12.3226891 L21.3731092,12.3226891 C21.2823529,14.8302521 20.5092437,16.5613445 19.4504202,17.7478992 L21.1613445,19.4588235 C21.3630252,19.6504202 21.3630252,19.9731092 21.1613445,20.1747899 C21.0605042,20.2655462 20.9394958,20.3159664 20.8117647,20.3159664 C20.6806723,20.3159664 20.5495798,20.2655462 20.4487395,20.1747899 L18.7378151,18.4537815 C16.7781513,20.0941176 14.3008403,20.3361345 13.3159664,20.3663866 L13.3159664,23.1260504 C13.3159664,23.4084034 13.0941176,23.6302521 12.8117647,23.6302521 C12.5394958,23.6302521 12.307563,23.4084034 12.307563,23.1260504 L12.307563,20.3663866 C11.2285714,20.3361345 8.81512605,20.0638655 6.91260504,18.4336134 L5.17142857,20.1747899 C5.07058824,20.2655462 4.9394958,20.3159664 4.80840336,20.3159664 C4.68739496,20.3159664 4.55630252,20.2655462 4.45882353,20.1747899 C4.26722689,19.9731092 4.26722689,19.6504202 4.45882353,19.4588235 L6.19663866,17.7176471 C5.17142857,16.5310924 4.42857143,14.8 4.32773109,12.3226891 L1.50420168,12.3226891 C1.23193277,12.3226891 1,12.0907563 1,11.8184874 C1,11.5361345 1.23193277,11.3142857 1.50420168,11.3142857 L4.33109244,11.3142857 C4.42184874,8.80672269 5.15462185,7.07563025 6.18319328,5.88907563 L4.46218487,4.16806723 C4.27058824,3.97647059 4.27058824,3.65378151 4.46218487,3.46218487 C4.66386555,3.2605042 4.97647059,3.2605042 5.17815126,3.46218487 L6.88907563,5.17647059 C8.82184874,3.52605042 11.2756303,3.28403361 12.3109244,3.26386555 L12.3109244,0.507563025 C12.3109244,0.225210084 12.5428571,0.00336134454 12.8151261,0.00336134454 C13.097479,0.00336134454 13.3193277,0.225210084 13.3193277,0.507563025 L13.3193277,3.27394958 C14.3445378,3.31428571 16.7815126,3.58655462 18.7210084,5.19663866 L20.4521008,3.46554622 C20.6537815,3.26386555 20.9764706,3.26386555 21.1680672,3.46554622 C21.3697479,3.65714286 21.3697479,3.97983193 21.1680672,4.17142857 L19.4369748,5.90252101 C20.492437,7.08907563 21.2655462,8.82016807 21.3697479,11.3176471 L24.1193277,11.3176471 L24.1193277,11.3142857 Z" id="Bacteria_1Light"></path>
        </g>
    </g>
</svg>

<svg width="24" height="24" viewBox="0 0 24 24" xmlns="http://www.w3.org/2000/svg"><path d="M15.192 10.992c.396-.007 1.973-.158 1.973-2.095 0-1.932-1.577-2.094-1.983-2.104-.05-.003-.108-.003-.162-.003h-.033c-.414.003-1.96.148-1.96 2.094 0 1.95 1.556 2.1 1.973 2.108h.057c.047.003.094 0 .135 0zm.013-5.204c1.476.037 2.965 1.012 2.965 3.113 0 2.104-1.49 3.075-2.962 3.102l-.15.004h-.075c-1.475-.024-2.965-.995-2.965-3.116s1.483-3.086 2.958-3.1h.044l.185-.003zm-5.997 6.283c.219-.004 1.1-.088 1.1-1.163 0-1.076-.878-1.167-1.103-1.174h-.11c-.233.004-1.09.084-1.09 1.163 0 1.086.867 1.17 1.1 1.174h.103zm.02-3.345c1.006.024 2.085.716 2.085 2.178 0 1.466-1.083 2.151-2.088 2.172h-.138C8.082 13.059 7 12.373 7 10.894s1.082-2.161 2.08-2.171h.044l.105.003zm6.515 7.983c.279-.064 1.368-.403 1.086-1.768-.219-1.049-.942-1.22-1.395-1.22a1.986 1.986 0 00-.45.054c-.293.064-1.362.393-1.076 1.768.218 1.049.924 1.227 1.378 1.227.14 0 .255-.017.326-.034.04-.007.09-.02.13-.027zm-.31-3.996c1.228 0 2.115.756 2.38 2.023.347 1.67-.675 2.686-1.848 2.955l-.162.033c-.114.02-.299.05-.517.05-1.214 0-2.098-.759-2.363-2.03-.35-1.687.672-2.699 1.845-2.954.057-.01.118-.024.171-.034.108-.02.283-.043.495-.043zm3.022 4.648c1.116-1.116 1.933-2.837 1.933-5.526 0-6.672-5.042-7.506-7.203-7.57h-.777c-.08 0-.16 0-.252.01-.08 0-.171 0-.262.01-.38.02-.793.071-1.237.162a5.01 5.01 0 00-.833.222c-.091.03-.192.047-.283.09-.09.03-.181.061-.272.102-.01 0-.02.01-.04.02a3.44 3.44 0 00-.484.222c-.061.03-.111.06-.172.09a5.636 5.636 0 00-1.307.965c0 .01 0 .02-.02.02-.02.02-.03.04-.051.06 0 0-.01.02-.02.02a3.1 3.1 0 00-.38.441 5.708 5.708 0 00-.343.474c-.01.03-.03.05-.05.08-.101.162-.192.334-.283.515-.01.02-.02.04-.02.06-.1.182-.181.374-.252.585-.05.132-.1.263-.141.404-.03.1-.06.212-.09.333a9.24 9.24 0 00-.172.796c-.02.101-.03.202-.04.303-.03.191-.051.383-.061.585-.02.15-.02.302-.03.463-.01.162-.01.323-.01.491 0 6.743 5.011 7.55 7.163 7.58h.262c.171 0 .34 0 .494-.01 1.257-.02 3.499-.323 5.14-1.903.02-.01.02-.03.04-.05.013-.023.033-.023.053-.044zm5.664-6.047a.5.5 0 01.505.504.506.506 0 01-.505.505h-2.746c-.09 2.507-.864 4.238-1.923 5.425l1.711 1.71a.5.5 0 01-.35.858.547.547 0 01-.362-.141l-1.711-1.721c-1.96 1.64-4.437 1.882-5.422 1.912v2.76a.5.5 0 01-.504.504.506.506 0 01-.504-.504v-2.76c-1.08-.03-3.493-.302-5.395-1.932l-1.742 1.74a.547.547 0 01-.363.142.527.527 0 01-.35-.141.518.518 0 010-.716l1.739-1.741C5.17 16.53 4.429 14.8 4.327 12.323H1.505A.512.512 0 011 11.818c0-.282.232-.504.504-.504h2.827c.09-2.507.824-4.238 1.852-5.425l-1.72-1.72a.505.505 0 010-.707.5.5 0 01.715 0L6.89 5.176c1.933-1.65 4.387-1.892 5.422-1.912V.508c0-.283.232-.505.504-.505a.5.5 0 01.504.505v2.766c1.026.04 3.463.313 5.402 1.923l1.731-1.731a.5.5 0 01.716 0 .487.487 0 010 .705l-1.731 1.732c1.055 1.186 1.829 2.917 1.933 5.415h2.75v-.004z" fill="#5CB615" fill-rule="nonzero"/></svg>
